site/web/app/themes/elefant/resources/assets/images/syncing.svg

<svg enable-background="new 0 0 480 480" viewBox="0 0 480 480" xmlns="http://www.w3.org/2000/svg"><path d="m280 280v-40h-248v-208h336v152h24v-160c-.026-8.826-7.174-15.974-16-16h-352c-8.826.026-15.974 7.174-16 16v240c.026 8.826 7.174 15.974 16 16z" fill="#ffda44"/><path d="m32 32v208h248v-40c.026-8.826 7.174-15.974 16-16h72v-152zm38.056 102.056 33.944 33.944v-48c0-26.51 21.49-48 48-48-26.51 0-48 21.49-48 48v48l33.944-33.944-33.944 33.944zm193.944 17.944c0 26.51-21.49 48-48 48 26.51 0 48-21.49 48-48zm0-48-33.944 33.944 33.944-33.944 33.944 33.944z" fill="#ebe5dd"/><path d="m160 280h80v80h-80z" fill="#ffda44"/><path d="m456 184h-160c-8.826.026-15.974 7.174-16 16v208h192v-208c-.026-8.826-7.174-15.974-16-16zm-80 168c-30.928 0-56-25.072-56-56s25.072-56 56-56 56 25.072 56 56-25.072 56-56 56z" fill="#ebe5dd"/><path d="m280 456c.026 8.826 7.174 15.974 16 16h160c8.826-.026 15.974-7.174 16-16v-48h-192z" fill="#ffda44"/><path d="m376 240c-30.928 0-56 25.072-56 56s25.072 56 56 56 56-25.072 56-56-25.072-56-56-56zm-8 80-22.624-22.624 22.624 22.624 45.256-45.256z" fill="#7ed63e"/><g fill="#231f20"><path d="m456 176h-56v-152c0-13.255-10.745-24-24-24h-352c-13.255 0-24 10.745-24 24v240c0 13.255 10.745 24 24 24h128v64h-32v16h152v88c0 13.255 10.745 24 24 24h160c13.255 0 24-10.745 24-24v-256c0-13.255-10.745-24-24-24zm8 24v200h-176v-200c0-4.418 3.582-8 8-8h160c4.418 0 8 3.582 8 8zm-104-24h-64c-13.255 0-24 10.745-24 24v32h-232v-192h320zm-336 96c-4.418 0-8-3.582-8-8v-240c0-4.418 3.582-8 8-8h352c4.418 0 8 3.582 8 8v152h-8v-152h-352v224h248v24zm144 80v-64h64v64zm80 0v-64h24v64zm208 112h-160c-4.418 0-8-3.582-8-8v-40h176v40c0 4.418-3.582 8-8 8z"/><path d="m344 432h16v16h-16z"/><path d="m368 432h16v16h-16z"/><path d="m392 432h16v16h-16z"/><path d="m351.024 291.72-11.312 11.312 28.288 28.28 50.912-50.912-11.312-11.312-39.6 39.6z"/><path d="m312 296c0 35.346 28.654 64 64 64s64-28.654 64-64-28.654-64-64-64c-35.33.04-63.96 28.67-64 64zm112 0c0 26.51-21.49 48-48 48s-48-21.49-48-48 21.49-48 48-48c26.499.026 47.974 21.501 48 48z"/><path d="m235.712 143.592 20.288-20.28v28.688c-.026 22.08-17.92 39.974-40 40h-96v16h96c30.913-.035 55.965-25.087 56-56v-28.688l20.288 20.28 11.312-11.312-39.6-39.592-39.6 39.592z"/><path d="m143.6 139.72-11.312-11.312-20.288 20.28v-28.688c.026-22.08 17.92-39.974 40-40h96v-16h-96c-30.913.035-55.965 25.087-56 56v28.688l-20.288-20.28-11.312 11.312 39.6 39.592z"/></g></svg>

<?xml version="1.0" encoding="iso-8859-1"?>
<!-- Generator: Adobe Illustrator 19.0.0, SVG Export Plug-In . SVG Version: 6.00 Build 0)  -->
<svg version="1.1" id="Capa_1" xmlns="http://www.w3.org/2000/svg" xmlns:xlink="http://www.w3.org/1999/xlink" x="0px" y="0px"
	 viewBox="0 0 480 480" style="enable-background:new 0 0 480 480;" xml:space="preserve">
<path style="fill:#FFDA44;" d="M280,280v-40H32V32h336v152h24V24c-0.026-8.826-7.174-15.974-16-16H24
	C15.174,8.026,8.026,15.174,8,24v240c0.026,8.826,7.174,15.974,16,16H280z"/>
<path style="fill:#EBE5DD;" d="M32,32v208h248v-40c0.026-8.826,7.174-15.974,16-16h72V32H32z M70.056,134.056L104,168v-48
	c0-26.51,21.49-48,48-48c-26.51,0-48,21.49-48,48v48l33.944-33.944L104,168L70.056,134.056z M264,152c0,26.51-21.49,48-48,48
	C242.51,200,264,178.51,264,152z M264,104l-33.944,33.944L264,104l33.944,33.944L264,104z"/>
<path style="fill:#FFDA44;" d="M160,280h80v80h-80V280z"/>
<path style="fill:#EBE5DD;" d="M456,184H296c-8.826,0.026-15.974,7.174-16,16v208h192V200C471.974,191.174,464.826,184.026,456,184z
	 M376,352c-30.928,0-56-25.072-56-56s25.072-56,56-56s56,25.072,56,56S406.928,352,376,352z"/>
<path style="fill:#FFDA44;" d="M280,456c0.026,8.826,7.174,15.974,16,16h160c8.826-0.026,15.974-7.174,16-16v-48H280V456z"/>
<path style="fill:#7ED63E;" d="M376,240c-30.928,0-56,25.072-56,56s25.072,56,56,56s56-25.072,56-56S406.928,240,376,240z M368,320
	l-22.624-22.624L368,320l45.256-45.256L368,320z"/>
<g>
	<path style="fill:#231F20;" d="M456,176h-56V24c0-13.255-10.745-24-24-24H24C10.745,0,0,10.745,0,24v240c0,13.255,10.745,24,24,24
		h128v64h-32v16h152v88c0,13.255,10.745,24,24,24h160c13.255,0,24-10.745,24-24V200C480,186.745,469.255,176,456,176z M464,200v200
		H288V200c0-4.418,3.582-8,8-8h160C460.418,192,464,195.582,464,200z M360,176h-64c-13.255,0-24,10.745-24,24v32H40V40h320V176z
		 M24,272c-4.418,0-8-3.582-8-8V24c0-4.418,3.582-8,8-8h352c4.418,0,8,3.582,8,8v152h-8V24H24v224h248v24H24z M168,352v-64h64v64
		H168z M248,352v-64h24v64H248z M456,464H296c-4.418,0-8-3.582-8-8v-40h176v40C464,460.418,460.418,464,456,464z"/>
	<path style="fill:#231F20;" d="M344,432h16v16h-16V432z"/>
	<path style="fill:#231F20;" d="M368,432h16v16h-16V432z"/>
	<path style="fill:#231F20;" d="M392,432h16v16h-16V432z"/>
	<path style="fill:#231F20;" d="M351.024,291.72l-11.312,11.312L368,331.312l50.912-50.912L407.6,269.088l-39.6,39.6L351.024,291.72
		z"/>
	<path style="fill:#231F20;" d="M312,296c0,35.346,28.654,64,64,64s64-28.654,64-64s-28.654-64-64-64
		C340.67,232.04,312.04,260.67,312,296z M424,296c0,26.51-21.49,48-48,48s-48-21.49-48-48s21.49-48,48-48
		C402.499,248.026,423.974,269.501,424,296z"/>
	<path style="fill:#231F20;" d="M235.712,143.592L256,123.312V152c-0.026,22.08-17.92,39.974-40,40h-96v16h96
		c30.913-0.035,55.965-25.087,56-56v-28.688l20.288,20.28L303.6,132.28L264,92.688l-39.6,39.592L235.712,143.592z"/>
	<path style="fill:#231F20;" d="M143.6,139.72l-11.312-11.312L112,148.688V120c0.026-22.08,17.92-39.974,40-40h96V64h-96
		c-30.913,0.035-55.965,25.087-56,56v28.688l-20.288-20.28L64.4,139.72l39.6,39.592L143.6,139.72z"/>
</g>
<g>
</g>
<g>
</g>
<g>
</g>
<g>
</g>
<g>
</g>
<g>
</g>
<g>
</g>
<g>
</g>
<g>
</g>
<g>
</g>
<g>
</g>
<g>
</g>
<g>
</g>
<g>
</g>
<g>
</g>
</svg>
